X:174 
T:Railroad (reel), The 
S:Grier MS
F:file ID: cre.4/174railr
B:CRE4.129 (BÃ³thar Iarainn)
Q:180
L:1/8
M:4/4
R:reel
K:Em % source key F#m
G2BG E2DF|G2BG AcBA|G2BG E2D2|dBAc BGAF|
G2BG E2DF|G2BG AcBA|G2BG E2D2|dBAc BGG2 ||
dGBG dGGB|dGBd efge|dGBG dGGB|cABG AGE2|
dG (3BAG dGGB|dGBd e2ef|gefd ecdB|cABG AGE2||
"last time"cABG AGFD |G8|]

